!!!SOCIAL_FUNCTION:	songs of war
!!!PDT:	1918

Specific Region: Dakotas, Minnesota, Montana, Nebraska
!!!REG: Dakotas and Montana
!!!LING_GROUP: Siouan
!!!LANG: Tone
!!!OTL@ENG: A Wolf I Considered Myself
!!!ONM: No. 129
**kern
*Imale
*clefF4
*k[b-e-a-d-]
*M2/4
*MM104
8f
8f
8f
8c
=2
4f
4c
=3
8d-
8c
8c
8B-
=4
4c
4B-
=5
8c
8B-
8B-
8A-
=6
4B-
4A-
=7
8B-
8A-
8A-
8F
=8||
*M3/4
8A-
8A-
4F
4r
=9||
*M2/4
4F
4C
=10
4F
8.C
16C
=11
2C
=12
2C
=13
8c
8c
8c
8B-
=14
8c
8c
4B-
=15
8c
8B-
8B-
8A-
=16
8B-
8B-
4A-
=17
8B-
8A-
8A-
8F
=18||
*M3/4
8A-
8A-
4F
4r
=19||
*M2/4
4F
4C
=20
4F
8.C
16C
=21
2C
=22
2C
==
*-
!!!CNT: Native American -- Sioux
!!!MRD: 1911/07//-1914///
!!!OCL: Frances Densmore
!!!YOR1: Teton Sioux Music, Bulletin 61,
!!!YOR2: Bureau of American Ethnology, Smithsonian Institution
!!!PPR: Government Printing Office
!!!PPP: Washington, D.C.
!!!PDT: 1918///
!!!ENC: Craig Stuart Sapp
!!!END: 2002/03/25/
!!!EEV: 2002/03/31/
!!!AGN: War Song/Song of a Typical War Expedition
!!!MPN@@SIO: Chetang'-hota
!!!MPN@ENG: Gray Hawk
!!!TXO: Teton Sioux
!!!MLC: Standing Rock Reservation, South Dakota, United States of America
!!!ARL: 45.9/-100.7#
!!!catalog: Catalogue No. 547
!!!PPG: 339
!!!EFL: 130/245
!!!VTS: 3075877110
